static/images/hero-section-imgs/hero-star.svg

<svg width="100" height="100" viewBox="0 0 100 100" fill="none" xmlns="http://www.w3.org/2000/svg">
<path d="M50 0V0C50.7537 27.296 72.704 49.2463 100 50V50V50C72.704 50.7537 50.7537 72.704 50 100V100V100C49.2463 72.704 27.296 50.7537 0 50V50V50C27.296 49.2463 49.2463 27.296 50 0V0Z" fill="white"/>
</svg>

<svg xmlns="http://www.w3.org/2000/svg" width="100" height="100" fill="none" xmlns:v="https://vecta.io/nano"><path d="M50 0h0c.754 27.296 22.704 49.246 50 50h0 0c-27.296.754-49.246 22.704-50 50h0 0c-.754-27.296-22.704-49.246-50-50h0 0c27.296-.754 49.246-22.704 50-50h0z" fill="#fff"/></svg>
